X:1
T:Title
%%score { ( 1 4 ) | ( 2 3 ) }
L:1/8
M:6/8
K:F
V:1 treble nm="Grand Piano"
V:4 treble 
V:2 bass 
V:3 bass 
V:1
 z3 z2[Q:1/4=92] F | A2 A A2 A | AB[CFA] [B,EG]2 [B,C] | [B,EG]2 [B,EG] [B,EG]2 [B,EG] | %4
 [B,G]A[B,EG] F2 C | A2 A A2 A |[M:7/8] ABc d3 [Fd] |[M:3/4] [Fc]2 [FA] [FA]2 F |[M:5/8] [EG]3 F2 | %9
[M:1/8] c |[M:3/4] c2 A d2 c |[M:5/8] [Ac]3 [GB]2 |[M:1/8] [GB] |[M:3/4] [GB]2 [EG] [Ac]2 [GB] | %14
 [GB]3 .[FA]3 |[M:4/4] [FA]8 | [FB]2 [Fc]2 [Fd]3 [Fd] |[M:3/4] [Fc]2 [FA] [FA]2 [A,F] | %18
[M:5/8] [B,EG]3 [A,CF]2 |] %19
V:2
 z3 z2 [F,A,C] | [F,CF]2 [F,CF] [F,CF]2 [F,CF] | .C3 z3 | C,2 C, C,2 C, | z CC, [F,A,]2 [F,A,] | %5
 [F,CF]2 [F,CF] [F,CF]2 [F,CF] |[M:7/8] [CF]-[G,CF][A,CF] [B,F]3[K:bass] [D,B,] | %7
[M:3/4] [C,A,]2 [C,C] [C,C]2 [C,A,] |[M:5/8] [C,B,]3 [F,A,]2 |[M:1/8] [F,A,F] | %10
[M:3/4] [F,A,F]2 [F,CF] [F,B,F]2 [F,A,F] |[M:5/8] [C,C]3 [C,C]2 |[M:1/8] [C,C] | %13
[M:3/4] [C,C]2 [C,C] [C,C]2 [C,C] | [F,C]3 .[F,C]3 |[M:4/4] [F,C]8 | %16
 [D,B,]2 [C,A,]2 [B,,B,]3 [B,,B,] |[M:3/4] [C,A,]2 [C,C] [C,C]2 C, |[M:5/8] C,3 F,2 |] %19
V:3
 x6 | x6 | [F,F]-[F,DF]F, C,2 C, | x6 | .C,3 z3 | x6 |[M:7/8] F, z z z z z2[K:bass] |[M:3/4] x6 | %8
[M:5/8] x5 |[M:1/8] x |[M:3/4] x6 |[M:5/8] x5 |[M:1/8] x |[M:3/4] x6 | x6 |[M:4/4] x8 | x8 | %17
[M:3/4] x6 |[M:5/8] x5 |] %19
V:4
 x6 | x6 | x6 | x6 | .E3 z3 | x6 |[M:7/8] x7 |[M:3/4] x6 |[M:5/8] x5 |[M:1/8] x |[M:3/4] x6 | %11
[M:5/8] x5 |[M:1/8] x |[M:3/4] x6 | x6 |[M:4/4] x8 | x8 |[M:3/4] x6 |[M:5/8] x5 |] %19

